T: President Lincoln's
M: 4/4
L: 1/8
K: Gmaj
d2 (3Bcd g2 (3fed | F2 (3GAB c2 (3DEF | G,>B,D>G E>c (3BAG | F2 (3AGF D>cB>A |d>GB>d g>f (3fed | e>Ac>e a>gf>e | B>dG>B A>cF>A | (3GGG (3AGF G2 :|d2 (3Bcd g2 (3fed | F2 (3GAB c2 (3DEF | G,B,DG Ec (3BAG | F2 (3AGF DcBA |dGBd gf (3fed | eAce agfe | BdGB AcFA | (3GGG (3AGF G2 :|
